X: 6974
T: Chicago, The
R: reel
M: 4/4
K: Adorian
cded cAGE|GEDE GAcd|eAcd edcA|eaag edcA|
cded cAGE|GEDE GAcd|eaae gedB|cABG A3B:|
|:cdef g2ef|gfgd BGG2|cdef g2fg|eaag aged
cdef g2fe|(3aaa ef (3ggg ge|fedB gedB|cABG A3B:|

